!!!OTL: Caoyuan shang samanle jinse de yangguang
!!!ARE: Asia, China,ÿQinghai Haixi
!! I, 219
!!!SCT: C1851
!!!YEM: Copyright 1995, estate of Helmut Schaffrath.
**kern
*ICvox
*Ivox
*M2/4
*k[f#]
*G:
{4d
8d
8e
=1
8g
16a
16b
8g
8e
=2
8dd
16ee
16gg
16ee
16dd
8b
=3
4.a
8b}
=4
{8.dd
16ee
8e
8g
=5
8.b
16dd
8a
8g
=6
8e
16e
16g
16a
16b
8dd
=7
4.d
8e}
=8
{4d
8d
8e
=9
8g
16a
16b
8g
8e
=10
8dd
16ee
16gg
16ee
16dd
16b
16dd
=11
4.a
8b}
=12
{8.dd
16ee
8e
8g
=13
8.b
16dd
8a
8g
=14
8.e
16g
16a
16b
8dd
=15
2d}
==
!!!AGN: Shange
!! Menggu
!!!ONB: ESAC (Essen Associative Code) Database: SENGANSU
!!!AMT: simple duple
!!!AIN: vox
!!!EED: Helmut Schaffrath
!!!EEV: 1.0
*-
